frontend/public/svg/hand gestures/scan.svg

<svg width="106" height="164" viewBox="0 0 106 164" fill="none" xmlns="http://www.w3.org/2000/svg">
<g clip-path="url(#clip0)">
<path d="M105.198 52.6167C105.412 43.85 105.522 34.9349 105.627 26.3132L105.673 22.6378C105.693 20.9382 105.606 19.239 105.411 17.5505C104.795 12.1817 102.144 8.22069 97.5316 5.77714C93.7963 3.79829 89.7546 3.40775 86.6508 3.28896L78.5713 2.97457C64.775 2.43637 50.5082 1.8798 36.4704 1.57264C30.7311 1.43915 24.992 1.83458 19.3252 2.754C11.1637 4.09424 6.20214 8.97344 4.97807 16.8652C4.04148 22.9036 3.4627 29.1198 2.97701 34.9402C2.64556 38.9137 2.47235 42.9632 2.30433 46.8796C2.2446 48.2802 2.18477 49.6815 2.11717 51.0801C2.03906 52.7085 1.94974 54.3362 1.85982 55.9646C1.63142 60.0995 1.39648 64.3717 1.36629 68.5808C1.32297 74.7707 1.37286 81.0643 1.42077 87.1499C1.45753 91.7745 1.49552 96.5559 1.49224 101.257C1.48371 113.613 1.37831 125.892 1.27592 136.273C1.1851 140.685 1.71037 145.088 2.83664 149.355C4.40464 155.116 7.90868 158.725 13.5486 160.386C18.4055 161.818 23.6753 162.495 30.6239 162.58C37.9152 162.669 44.592 162.711 50.8685 162.711C57.5199 162.711 63.7217 162.661 69.7166 162.561C74.8754 162.474 80.1091 162.02 85.1701 161.581C86.7394 161.445 88.3087 161.31 89.878 161.184C93.9624 160.855 97.0039 158.615 98.9158 154.522C99.6246 152.981 100.217 151.39 100.688 149.76C103.283 141.004 103.681 131.878 103.851 124.011C104.092 112.844 104.2 101.488 104.304 90.5064C104.348 85.8412 104.396 81.1759 104.447 76.5107L104.338 76.2009C104.426 73.863 104.518 71.5251 104.616 69.1866C104.837 63.7567 105.064 58.1431 105.198 52.6167ZM95.6511 136.917L95.1195 139.49C94.3628 143.168 93.5797 146.972 92.6766 150.677C92.0393 153.294 90.2587 154.711 87.3833 154.889C85.1852 155.026 82.9523 155.202 80.793 155.373C76.6863 155.697 72.4391 156.033 68.2628 156.105C55.0543 156.333 43.2703 156.34 32.2366 156.122C27.2426 156.025 21.3787 155.66 15.7499 153.701C12.9776 152.736 11.3413 151.05 10.5983 148.397L10.5479 148.216C9.64417 144.988 8.71026 141.653 9.17955 137.83C18.4339 137.622 27.7979 137.222 36.8547 136.835C56.0086 136.017 75.8114 135.172 95.2344 136.133C95.3112 136.282 95.3873 136.413 95.4549 136.53C95.5343 136.652 95.6006 136.782 95.6511 136.917ZM9.33241 131.373C9.295 131.104 9.25542 130.848 9.21669 130.608C9.10971 130.047 9.05077 129.478 9.0408 128.907L9.21033 119.094C9.49584 102.447 9.79125 85.2341 10.1503 68.3058C10.4023 56.3998 10.675 44.7433 11.2152 32.9883C11.5002 28.5735 12.0189 24.1768 12.7689 19.8169L13.0426 18.0302C13.2183 16.4585 13.8865 14.9823 14.9513 13.8129C16.0162 12.6434 17.4235 11.8405 18.972 11.5187L19.8319 11.2943C21.7548 10.6995 23.7449 10.3497 25.7553 10.2527H25.7953C39.7097 10.3052 54.136 10.4686 69.905 10.7515C75.5219 10.8526 81.6088 11.1157 89.0609 11.5798C95.7358 11.9959 98.3467 14.7085 98.3717 21.2555C98.4189 33.6393 98.1826 46.2331 97.9542 58.4127L97.8938 61.6288C97.7941 66.9964 97.6254 72.4532 97.4626 77.7295C97.3314 82.0495 97.1902 86.5165 97.0905 90.9114C96.9192 98.4849 96.7807 106.186 96.6468 113.633C96.5667 118.07 96.4847 122.507 96.4 126.943C96.381 127.385 96.3344 127.826 96.2602 128.262C96.234 128.445 96.2057 128.638 96.1782 128.846C75.1058 128.013 53.7755 129.137 33.1449 130.224C25.3489 130.634 17.2912 131.058 9.33241 131.373Z" fill="black"/>
<path d="M40.2517 98.6399C39.1062 98.3524 37.9254 98.2329 36.7456 98.2841L36.1547 98.2789C34.0478 98.2506 31.9202 98.2559 29.6656 98.2612C28.8052 98.2612 27.9204 98.2657 27.0015 98.2664C27.0015 97.3331 27.0075 96.4352 27.0127 95.5623C27.0245 93.4476 27.0357 91.4503 26.9858 89.4682C26.9254 87.0785 26.5763 84.8679 24.4537 84.8679H24.4412C22.5208 84.8765 21.9883 86.7057 21.779 89.4433C21.6628 90.966 21.582 92.5156 21.5085 94.014C21.4428 95.2925 21.3772 96.5704 21.2912 97.847C20.9834 102.321 22.629 104.448 26.7922 104.958C29.3685 105.25 31.9599 105.387 34.5526 105.367C35.4872 105.367 36.3937 105.354 37.2574 105.338C38.6644 105.262 40.0165 104.767 41.1397 103.916C41.5822 103.535 41.9338 103.059 42.1691 102.524C42.4043 101.989 42.5172 101.409 42.4995 100.825C42.3991 99.8816 41.1029 98.9011 40.2517 98.6399Z" fill="black"/>
<path d="M70.7712 51.5783C71.0127 51.5678 71.2464 51.5481 71.4932 51.558C73.6414 51.5619 75.7909 51.558 77.9988 51.558H80.296V52.6783C80.296 53.5512 80.3012 54.2818 80.2907 55.0116C80.2789 55.8314 80.2573 56.6525 80.2356 57.4722C80.193 59.0947 80.1483 60.7722 80.187 62.4242C80.2441 64.8304 81.3074 66.3209 83.1051 66.5126C83.2121 66.5243 83.3191 66.5303 83.4267 66.5304C85.1083 66.5304 86.4459 65.0825 86.8705 62.7446C86.9368 62.3948 86.9723 62.04 86.9782 61.684C86.986 60.7152 87.0011 59.7465 87.0169 58.7771C87.0543 56.4143 87.0924 53.9759 87.0169 51.5743C86.9513 49.4484 86.4144 47.9467 85.3813 46.98C84.3482 46.0132 82.8327 45.5958 80.7325 45.6733C77.5479 45.7927 74.3194 46.0671 71.1972 46.3296L69.9849 46.432C69.2236 46.4149 68.4845 46.687 67.9161 47.1933C67.288 47.8911 66.9375 48.7951 66.9316 49.734C66.9973 50.456 68.0297 51.2094 68.7412 51.4306C69.4041 51.5954 70.0912 51.6454 70.7712 51.5783Z" fill="black"/>
<path d="M86.9644 96.8874C86.6454 95.2288 86.4045 93.5224 86.1709 91.873C86.0344 90.9062 85.8978 89.9401 85.7456 88.9766C85.7147 88.7843 85.6898 88.5867 85.6655 88.3859C85.6255 87.654 85.4364 86.938 85.1096 86.2816C84.6377 85.4888 83.7641 84.5095 82.8544 84.3468C82.5669 84.2883 82.2696 84.2949 81.9848 84.3651C81.6993 84.436 81.4334 84.5686 81.2057 84.7543C80.9267 85.0011 80.7042 85.305 80.5526 85.645C80.4017 85.9856 80.3249 86.3545 80.3288 86.7273C80.3216 88.2507 80.3951 89.7734 80.5487 91.2888L80.6143 92.0994C80.7167 93.3714 80.8473 94.625 80.9983 96.0755C81.0587 96.6531 81.1217 97.2569 81.1866 97.9008C80.5782 97.9428 80.0052 97.9835 79.4631 98.0222C78.0979 98.1194 76.9034 98.2047 75.7016 98.2644C75.1031 98.2946 74.5012 98.2972 73.9 98.2992C72.8131 98.2775 71.7262 98.3353 70.6478 98.4718C68.6558 98.7731 67.4318 100.106 67.4587 101.95C67.4843 103.81 68.6887 105.022 70.7627 105.275C72.2335 105.462 73.7142 105.558 75.1963 105.565C77.7973 105.596 80.3853 105.191 82.8518 104.365C86.3527 103.165 87.6975 100.718 86.9644 96.8874Z" fill="black"/>
<path d="M24.1577 66.7931H24.1923C24.572 66.8246 24.9544 66.778 25.3149 66.6546C25.6755 66.5318 26.0066 66.3354 26.2876 66.078C26.5686 65.8207 26.7933 65.5079 26.9475 65.1596C27.1016 64.8111 27.1818 64.4345 27.1833 64.0535C27.3612 61.7038 27.4406 59.3902 27.5115 57.0307C27.545 55.976 27.538 54.9448 27.5294 53.749C27.5294 53.2896 27.5227 52.8058 27.5214 52.2991C28.2933 52.2606 29.0494 52.2243 29.7897 52.1902C31.8638 52.0924 33.8236 52.0005 35.79 51.8555L35.9913 51.841C37.0887 51.8465 38.1737 51.6057 39.1656 51.1361C39.662 50.843 40.0925 50.4506 40.4303 49.9836C40.768 49.5165 41.0057 48.9846 41.1286 48.4215C41.1615 48.1424 41.1379 47.8594 41.059 47.5897C40.9801 47.3199 40.8472 47.0689 40.669 46.8515C40.0766 46.2195 39.2587 45.8468 38.393 45.8145C37.6677 45.7677 36.94 45.7759 36.216 45.8395L35.6737 45.871C33.1762 46.0022 30.6791 46.1414 28.1829 46.2884L27.6493 46.3193C27.3697 46.335 27.0896 46.3455 26.8087 46.3567C26.0726 46.3697 25.338 46.4287 24.6093 46.5332C22.8739 46.8181 21.7488 47.9489 21.674 49.4867C21.4193 54.7086 21.3007 59.4223 21.3099 63.8979C21.2982 64.2904 21.3644 64.6813 21.5048 65.048C21.6452 65.4147 21.8566 65.7499 22.1274 66.0343C22.3988 66.2888 22.718 66.4869 23.0665 66.6172C23.4149 66.7472 23.7859 66.8069 24.1577 66.7931Z" fill="black"/>
<path d="M54.464 140.399C53.8148 140.393 53.171 140.517 52.5709 140.766C51.9709 141.014 51.427 141.38 50.9718 141.843C50.5977 142.264 50.3125 142.756 50.1337 143.29C49.9549 143.823 49.8862 144.388 49.9315 144.949C50.045 147.261 52.8396 149.658 55.3947 149.658H55.4604C56.6744 149.585 57.8208 149.074 58.6863 148.22C59.5518 147.365 60.0775 146.226 60.1663 145.013C60.1887 144.441 60.0909 143.871 59.8791 143.34C59.6673 142.808 59.3463 142.328 58.9369 141.928C58.3361 141.38 57.6291 140.961 56.8596 140.699C56.0901 140.435 55.2746 140.334 54.464 140.399Z" fill="black"/>
</g>
<defs>
<clipPath id="clip0">
<rect width="105.014" height="162.115" fill="white" transform="translate(0.72168 0.945923)"/>
</clipPath>
</defs>
</svg>

<svg xmlns="http://www.w3.org/2000/svg" width="106" height="164" fill="none" viewBox="0 0 106 164"><g fill="#000" clip-path="url(#a)"><path d="M105.198 52.617c.214-8.767.324-17.682.429-26.304l.046-3.675a40 40 0 0 0-.262-5.088c-.616-5.368-3.267-9.33-7.88-11.773-3.735-1.979-7.776-2.37-10.88-2.488l-8.08-.314c-13.796-.539-28.063-1.095-42.1-1.402a93.5 93.5 0 0 0-17.146 1.181c-8.161 1.34-13.123 6.22-14.347 14.111-.937 6.039-1.515 12.255-2.001 18.075-.331 3.974-.505 8.023-.673 11.94q-.088 2.1-.187 4.2a676 676 0 0 1-.257 4.885c-.229 4.134-.464 8.407-.494 12.616-.043 6.19.007 12.483.055 18.569.037 4.624.075 9.406.071 14.107-.008 12.356-.114 24.635-.216 35.016a47.4 47.4 0 0 0 1.56 13.082c1.569 5.761 5.073 9.37 10.713 11.031 4.857 1.432 10.126 2.109 17.075 2.194 7.291.089 13.968.131 20.245.131 6.65 0 12.853-.05 18.848-.15 5.158-.087 10.392-.541 15.453-.98 1.57-.136 3.139-.271 4.708-.397 4.084-.329 7.126-2.569 9.038-6.662a34 34 0 0 0 1.772-4.762c2.595-8.756 2.993-17.882 3.163-25.749.241-11.167.349-22.523.453-33.505q.066-6.998.143-13.995l-.109-.31q.131-3.507.278-7.014c.221-5.43.448-11.044.582-16.57m-9.547 84.3-.531 2.573c-.757 3.678-1.54 7.482-2.443 11.187-.638 2.617-2.418 4.034-5.294 4.212a396 396 0 0 0-6.59.484c-4.107.324-8.354.66-12.53.732-13.209.228-24.993.235-36.026.017-4.994-.097-10.858-.462-16.487-2.421-2.772-.965-4.409-2.651-5.152-5.304l-.05-.181c-.904-3.228-1.838-6.563-1.368-10.386 9.254-.208 18.618-.608 27.675-.995 19.154-.818 38.956-1.663 58.38-.702.076.149.152.28.22.397q.12.184.196.387m-86.319-5.544a35 35 0 0 0-.115-.765 10 10 0 0 1-.176-1.701l.17-9.813c.285-16.647.58-33.86.94-50.788.251-11.906.524-23.563 1.064-35.318.285-4.414.804-8.811 1.554-13.171l.274-1.787a7.5 7.5 0 0 1 5.929-6.511l.86-.225a24 24 0 0 1 5.923-1.041h.04c13.915.052 28.341.216 44.11.498 5.617.102 11.704.365 19.156.829 6.675.416 9.286 3.129 9.31 9.676.048 12.383-.188 24.977-.417 37.157l-.06 3.216c-.1 5.367-.269 10.824-.431 16.1-.132 4.32-.273 8.787-.372 13.182-.172 7.574-.31 15.275-.444 22.722q-.12 6.656-.247 13.31-.029.664-.14 1.319-.04.273-.082.584c-21.072-.833-42.402.291-63.033 1.378-7.796.41-15.854.834-23.813 1.149"/><path d="M40.252 98.64a12.2 12.2 0 0 0-3.506-.356l-.591-.005c-2.107-.028-4.235-.023-6.49-.018-.86 0-1.745.005-2.663.005 0-.933.006-1.83.01-2.704.012-2.114.024-4.112-.026-6.094-.06-2.39-.41-4.6-2.532-4.6h-.013c-1.92.008-2.453 1.838-2.662 4.575a170 170 0 0 0-.27 4.571 245 245 0 0 1-.218 3.833c-.308 4.474 1.338 6.601 5.501 7.111a65 65 0 0 0 7.76.409c.935 0 1.842-.013 2.705-.029a7.06 7.06 0 0 0 3.883-1.422 3.92 3.92 0 0 0 1.36-3.091c-.1-.943-1.397-1.924-2.248-2.185m30.519-47.062c.242-.01.475-.03.722-.02 2.148.004 4.298 0 6.506 0h2.297v1.12c0 .873.005 1.604-.005 2.334-.012.82-.034 1.64-.055 2.46-.043 1.623-.088 3.3-.049 4.952.057 2.406 1.12 3.897 2.918 4.089q.16.017.322.017c1.681 0 3.019-1.448 3.444-3.785a6 6 0 0 0 .107-1.061q.013-1.453.039-2.907c.037-2.363.075-4.801 0-7.203-.066-2.126-.603-3.627-1.636-4.594s-2.548-1.384-4.648-1.307c-3.185.12-6.414.394-9.536.657l-1.212.102a3 3 0 0 0-2.069.761 3.83 3.83 0 0 0-.984 2.541c.065.722 1.098 1.475 1.81 1.697.662.164 1.35.214 2.03.147m16.192 45.309c-.319-1.658-.56-3.365-.793-5.014-.137-.967-.273-1.933-.425-2.896q-.045-.29-.08-.591a5.4 5.4 0 0 0-.556-2.104c-.472-.793-1.346-1.772-2.256-1.935a1.98 1.98 0 0 0-1.648.407 2.6 2.6 0 0 0-.877 1.973 43 43 0 0 0 .22 4.562l.065.81c.103 1.272.233 2.526.384 3.977.06.577.124 1.18.189 1.825l-1.724.121c-1.365.097-2.56.183-3.761.242-.599.03-1.2.033-1.802.035a22 22 0 0 0-3.252.173c-1.992.301-3.216 1.634-3.19 3.478.026 1.86 1.23 3.072 3.305 3.325a37 37 0 0 0 4.433.29 23.2 23.2 0 0 0 7.656-1.2c3.5-1.2 4.846-3.647 4.112-7.478M24.158 66.793h.034a2.76 2.76 0 0 0 2.991-2.74c.178-2.35.258-4.663.329-7.022.033-1.055.026-2.086.017-3.282 0-.46-.006-.943-.008-1.45q1.158-.057 2.269-.109c2.074-.098 4.034-.19 6-.334l.201-.015a7.3 7.3 0 0 0 3.175-.705 4.2 4.2 0 0 0 1.963-2.715 2.1 2.1 0 0 0-.46-1.57 3.3 3.3 0 0 0-2.276-1.036 14 14 0 0 0-2.177.025l-.542.031q-3.747.196-7.491.417l-.534.031q-.42.022-.84.038-1.105.02-2.2.176c-1.735.285-2.86 1.416-2.935 2.954-.255 5.222-.373 9.935-.364 14.41a2.97 2.97 0 0 0 .817 2.137 2.8 2.8 0 0 0 2.03.76m30.307 73.605a4.83 4.83 0 0 0-3.492 1.444 4.17 4.17 0 0 0-1.04 3.106c.113 2.312 2.908 4.709 5.463 4.709h.065a5.02 5.02 0 0 0 4.706-4.645 4.08 4.08 0 0 0-1.23-3.085 5.92 5.92 0 0 0-4.473-1.529"/></g><defs><clipPath id="a"><path fill="#fff" d="M.722.946h105.014V163.06H.722z"/></clipPath></defs></svg>
